X:2536
T:Polska från Västergötland
T:Svenska Folkdansar H4 nr 14
O:Västergötland
B:Traditioner av Svenska Folkdansar Häfte 4, nr 14
R:Polska
Z:Nils L
N:Jämför [[Musik/2199|+]]
M:3/4
L:1/8
K:Dm
A2 d^c de | Tfe/f/ gf ed | d^c/d/ ec A2 | S A2 d^c de | Tfe/f/ gf ed | e>^c d2 D2 :: 
A2 aa aa | (ba) gf ed | A2 gg gg | ag fe "^D.C. al Segno"d^c |
(:musicend:)
(:music:)
